X:1
T:Où est l'Amour
T:M.Bense
T:Source : Livre XI de 22 chansons nouvelles à 4 parties---Paris---N.du Chemin---1554. Editor : André Vierendeels (19/04/18) Notes : Original clefs : C1, C3, C4, F4 Original note values have been halved Original note values have been quartered in 3-beat measures Editorial accidentals above the staff Square bracket indicates ligature
T:#
T:Où est l'Amour
T:©
T:©
T:©
C:M.Bense
Z:©
%%score [ 1 [ 2 3 ] 4 ]
L:1/8
Q:1/4=120
M:2/2
K:F
V:1 treble nm="Alto" snm="A"
V:2 treble-8 nm="Tenor 1" snm="T 1"
V:3 treble-8 nm="Tenor 2" snm="T 2"
V:4 bass nm="Bass" snm="B"
V:1
 A4 A2 G2 | G4 z2 A2 | A2 A2 B3 A | GF G4 F2 | G2 G2 c3 B | A2 G2 A4- | A2 G2 F4 | E4 z2 F2 | %8
w: Où est l'A-|mour que|ie pen- sois du-|* * ra- *|ble, et le _|_ plai- *||sir plus|
w: Où est le|feu de|no- stre'a- mour lou-|a- * * *|ble, le tien _|_ se _|_ _ _|meurt, le|
 FEFG A3 G | FE A4 G2- | G2 F4 E2 |[M:2/4] F4 :|[M:2/2] z2 G2 G2 G2 | F8 | E4 z2 A2 | A2 A2 B4- | %16
w: e- * * * trainct _|_ _ que cous-|* tu- *|me?|Mais en es-||poir plus|le- gier que|
w: mien _ _ _ _ plus|fort s'al- lu- *||me.|||||
 B2 A4 G2 | A4 z2 A2 | A2 A2 G4 | A6 G2 | F2 F2 EDEF | G2 A2 GF F2- |[M:2/4] F2 E2 | %23
w: _ la plu-|me, sen-|tant a- mour|ne se|peult pas te- * * *|||
w: |||||||
[M:3/4] F4 z2 |: G2 G2 G2 | A4 A2 | B3 B B2 | A4 A2 | G4 G2 | E3 E E2 | F2 F2 D2- | D2 C4 | %32
w: nir,|or voy- ie|bien dont,|que ie meurs|d'a- mer-|tu- me,|que ie meurs|d'a- mer- tu-||
w: |||||||||
[M:2/2] C4 z2 A2 | A2 A2 B2 A2 | F4 z2 G2- | G2 G2 G2 G2 | FEFG AB A2- | A2 G4 F2- | F2 E2 F4- | %39
w: me, ce|que plus ie crai-|gnois, ie|_ crai- gnois m'ad-|||* ve- nir.|
w: |||||||
 F8 :| %40
w: _|
w: |
V:2
 f4 f2 d2 | e4 z2 f2- | f2 f2 f2 d2 | _e2 c2 d4 | d4 z2 e2 | e2 e2 f3 e/d/ | c2 c2 d4 | G4 d4 | %8
w: Où est l'A-|mour que|_ ie pen- sois|du- ra- *|ble, et|le plai- sir, _ _|_ et le|plai- sir|
w: Où est le|feu de|no- stre'a- mour lou-|a- * *|ble, le|tien se meurt, _ _|_ le tien|se meurt,|
 z2 d2 d2 c2 | d4 d4- | d2 B2 c4 |[M:2/4] c4 :|[M:2/2] z2 e2 e2 e2 | d2 c4 B2 | c4 z2 c2 | f4 f4 | %16
w: plus e- strainct|que cous-|* * tu-|me?|Mais en es-||poir plus|le- gier|
w: le mien plus|fort s'al-|* * lu-|me.|||||
 f2 e2 f2 ed | c4 z2 f2 | f2 f2 dcde | f6 e2 | d2 d2 c2 e2- | e2 c2 d2 cB |[M:2/4] c4 | %23
w: que la plu- * *|me, sen-|tant a- mour, _ _ _|ne se|peult pas te- *|||
w: |||||||
[M:3/4] c4 z2 |: e2 e2 e2 | f4 f2 | f3 f f2 | f4 f2 | e4 d2 | c3 c c2 | A4 B2- | B2 G4 | %32
w: nir,|or voy- ie|bien dont,|que ie meurs|d'a- mer-|tu- me,|que ie meurs|d'a- mer-|* tu-|
w: |||||||||
[M:2/2] A4 z2 f2 | f2 f2 f2 e2 | d4 z2 d2- | d2 d2 d4- | d2 f4 e2 | d4 c2 B2 | c4 A4- | A8 :| %40
w: me, ce|que plus ie crai-|gnois, ie|_ crai- gnois|_ m'ad- *||ve- nir.|_|
w: ||||||||
V:3
 c4 c2 B2 | c4 z2 c2 | c2 c2 d3 c | B2 AG A4 | G4 z4 | z2 c2 c2 c2 | A2 c4 B2 | c2 G2 B2 B2 | %8
w: Où est l'A-|mour que|ie pen- sois du-|ra- * * *|ble,|et le plai-|sir plus e-|straint que cous- tu-|
w: Où est le|feu de|no- stre'a- mour lou-|a- * * *|ble,|le tien se|meurt, le mien|plus fort s'al- lu-|
 A4 z2 A2 | A2 A2 B3 A | BAAG/F/ G4 |[M:2/4] F4 :|[M:2/2] z2 G4 G2 | A4 F4 | G4 z2 A2 | c2 c2 d4- | %16
w: me, plus|e- strainct que cous-|tu- * * * * *|me?|Mais en|es- *|poir plus|le- gier que|
w: me, le|mien plus fort s'al-|lu- * * * * *|me.|||||
 d2 c2 B4 | A4 z2 A2 | A2 c4 B2 | c2 c2 c2 c2 | A2 B2 G2 c2- | c2 A2 BA AG/F/ |[M:2/4] G4 | %23
w: _ la plu-|me, sen-|tant a- *|mour, ne se peult|pas te- nir, ne|_ se peult _ pas- * *|te-|
w: |||||||
[M:3/4] F4 z2 |: c2 c2 c2 | c4 c2 | d3 d d2 | c4 c2 | c3 B/A/ B2 | G2 G2 A2 | A2 F2 G2 | %31
w: nir,|or voy- ie|bien dont,|que ie meurs|d'a- mer-|tu- * * me,|que ie meurs|d'a- mer- tu-|
w: ||||||||
 F3 E/D/ E2 |[M:2/2] F4 z2 c2 | c2 c2 d2 c2 | A4 z2 B2- | B2 B2 B2 B2 | A6 A2 | F2 G2 A2 B2 | %38
w: |me, ce|que plus ie crai-|gnois, ce|_ que plus ie|crai- gnois|m'ad _ _ _|
w: |||||||
 G4 F4- | F8 :| %40
w: ve- nir.|_|
w: ||
V:4
 F,4 F,2 G,2 | C,4 z2 F,2 | F,2 F,2 B,,2 B,,2 | _E,4 D,4 | G,,4 z2 C,2 | C,2 C,2 F,4- | %6
w: Où est l'A-|mour que|ie pen- sois du-|ra- *|ble, et|le plai- sir|
w: Où est le|feu de|no- stre'a- mour lou-|a- *|ble, le|tien se meurt,|
 F,2 E,2 D,4 | C,3 B,,/A,,/ G,,A,,B,,C, | D,C,D,E, F,3 E, | D,3 C, B,,2 G,,2 | D,4 C,4 | %11
w: _ plus e-|straint _ _ _ _ _ _|_ _ _ _ que cous-|tu- * * *||
w: _ le mien|plus _ _ _ _ _ _|_ _ _ _ fort s'al-|lu- * * *||
[M:2/4] F,,4 :|[M:2/2] z2 C,2 C,2 C,2 | F,E,D,C, D,4 | C,4 z2 F,2 | F,2 F,2 B,,4- | %16
w: me?|Mais en es-||poir plus|le- gier que|
w: me.|||||
 B,,2 C,2 D,2 E,2 | F,4 z2 F,2 | F,2 F,2 G,4 | F,6 C,2 | D,2 B,,2 C,3 D, | E,2 F,2 D,4 | %22
w: _ la plu- *|me, sen-|tant a- mour|ne se|peult pas te- *||
w: ||||||
[M:2/4] C,4 |[M:3/4] F,,4 z2 |: C,2 C,2 C,2 | F,4 F,2 | B,,3 B,, B,,2 | F,4 F,2 | C,D, E,F, G,2 | %29
w: |nir,|or voy- ie|bien dont,|que ie meurs|d'a- mer-|tu- * * * *|
w: |||||||
 C,4 C,2 | D,2 D,2 B,,2 | B,,2 C,4 |[M:2/2] F,,4 z2 F,2 | F,2 F,2 B,,2 C,2 | D,4 z2 G,,2- | %35
w: me, que|ie meurs d'a-|mer- tu-|me, ce|que plus ie crai-|gnois, ie|
w: ||||||
 G,,2 G,,2 G,,A,,B,,C, | D,C,D,E, F,2 C,2 | D,2 B,,2 C,2 D,2 | C,4 F,,4- | F,,8 :| %40
w: _ crai- gnois _ _ _|_ _ _ _ _ m'ad-||ve- nir.|_|
w: |||||

